packages/icons/src/lib/svgs/message-circle.svg

<svg
        aria-hidden="true"
        data-testid="test-icon"
        fill="none"
        
        viewBox="0 0 24 24"
        
        xmlns="http://www.w3.org/2000/svg"
        
    >
        <title>message circle icon</title>
        <path
            fillRule="evenodd"
            clipRule="evenodd"
            d="M12.4783 5.79245C7.98559 5.79245 4.74596 8.59717 4.74596 11.6179C4.74596 12.3661 4.93466 13.085 5.28588 13.7513C5.33403 13.8427 5.38529 13.9331 5.4396 14.0226C5.63061 14.3373 5.66791 14.7367 5.51027 15.0934L4.28263 17.8711L8.26357 16.7754C8.50482 16.709 8.75683 16.7242 8.98307 16.8113C10.0292 17.214 11.2158 17.4434 12.4783 17.4434C16.9711 17.4434 20.2107 14.6387 20.2107 11.6179C20.2107 8.59717 16.9711 5.79245 12.4783 5.79245ZM2.95665 11.6179C2.95665 7.2141 7.44192 4 12.4783 4C17.5147 4 22 7.2141 22 11.6179C22 16.0217 17.5147 19.2358 12.4783 19.2358C11.0778 19.2358 9.7431 18.9948 8.5391 18.5584L3.45767 19.957C2.52235 20.2145 1.70845 19.2679 2.10113 18.3794L3.74363 14.6631C3.73012 14.6382 3.71678 14.6133 3.70359 14.5882C3.22534 13.6809 2.95665 12.6764 2.95665 11.6179Z"
            fill="currentColor"
        />
    </svg>

<svg aria-hidden="true" data-testid="test-icon" fill="currentColor" viewBox="0 0 24 24" xmlns="http://www.w3.org/2000/svg"><path fill-rule="evenodd" clip-rule="evenodd" d="M12.478 5.792c-4.492 0-7.732 2.805-7.732 5.826 0 .748.189 1.467.54 2.133.048.092.1.182.154.272.19.314.228.714.07 1.07l-1.227 2.778 3.98-1.096c.242-.066.494-.05.72.036a9.746 9.746 0 003.495.632c4.493 0 7.733-2.804 7.733-5.825 0-3.02-3.24-5.826-7.733-5.826zm-9.521 5.826C2.957 7.214 7.442 4 12.478 4 17.515 4 22 7.214 22 11.618s-4.485 7.618-9.522 7.618c-1.4 0-2.735-.241-3.939-.678l-5.081 1.399c-.936.258-1.75-.69-1.357-1.578l1.643-3.716a6.339 6.339 0 01-.787-3.045z"/></svg>
